Newaita-dark/apps/32/com.github.freeeradicals.elements.svg

<svg height="32" viewBox="0 0 32 32" width="32" xmlns="http://www.w3.org/2000/svg" xmlns:xlink="http://www.w3.org/1999/xlink"><linearGradient id="a" gradientUnits="userSpaceOnUse" x1="15.87652" x2="15.87652" y1="28.033936" y2="29.35698000003"><stop offset="0" stop-opacity=".27451"/><stop offset="1" stop-opacity="0"/></linearGradient><linearGradient id="b"><stop offset="0" stop-opacity=".313726"/><stop offset=".222222" stop-opacity=".27451"/><stop offset="1" stop-opacity="0"/></linearGradient><radialGradient id="c" cx="450.908936" cy="189.579361" gradientTransform="matrix(.00000017 -.0781325 -.140638 -.0000001 52.130648 63.595333)" gradientUnits="userSpaceOnUse" r="21.166656" xlink:href="#b"/><radialGradient id="d" cx="450.908936" cy="189.579361" gradientTransform="matrix(-.00000017 .0781325 .140638 .0000001 -20.377613 -7.527479)" gradientUnits="userSpaceOnUse" r="21.166656" xlink:href="#b"/><radialGradient id="e" cx="450.908936" cy="189.579361" gradientTransform="matrix(-.00000017 -.0781325 .140638 -.0000001 -20.377613 63.595333)" gradientUnits="userSpaceOnUse" r="21.166656" xlink:href="#b"/><radialGradient id="f" cx="450.908936" cy="189.579361" gradientTransform="matrix(.00000017 .0781325 -.140638 .0000001 52.130646 -7.527479)" gradientUnits="userSpaceOnUse" r="21.166656" xlink:href="#b"/><linearGradient id="g" gradientUnits="userSpaceOnUse" x1="10.58434899997" x2="10.58434899997" y1="28.033934" y2="2.89610500006"><stop offset="0" stop-color="#42a5f5"/><stop offset="1" stop-color="#64b5f6"/></linearGradient><linearGradient id="h"><stop offset="0" stop-color="#bdbdbd"/><stop offset="1" stop-color="#e0e0e0"/></linearGradient><linearGradient id="i" gradientUnits="userSpaceOnUse" x1="10.58432" x2="10.58432" xlink:href="#h" y1="28.03386419623" y2="2.89610370009"/><linearGradient id="j" gradientUnits="userSpaceOnUse" x1="23.814786" x2="23.814786" xlink:href="#h" y1="12.8189318125" y2="4.219148"/><path d="m5.953125 27.9375h19.847656v1.46875h-19.847656zm0 0" fill="url(#a)"/><path d="m25.800781 28.035156h2.644531v-1.324218h-2.644531zm0 0" fill="url(#c)"/><path d="m5.953125 28.035156h-2.644531v1.320313h2.644531zm0 0" fill="url(#d)"/><path d="m5.953125 28.035156h-2.644531v-1.324218h2.644531zm0 0" fill="url(#e)"/><path d="m25.800781 28.035156h2.644531v1.320313h-2.644531zm0 0" fill="url(#f)"/><path d="m4.628906 2.894531h22.492188c.730468 0 1.324218.59375 1.324218 1.324219v22.492188c0 .730468-.59375 1.324218-1.324218 1.324218h-22.492188c-.730468 0-1.320312-.59375-1.320312-1.324218v-22.492188c0-.730469.589844-1.324219 1.320312-1.324219zm0 0" fill="url(#g)"/><path d="m4.628906 2.894531c-.730468 0-1.320312.589844-1.320312 1.324219v.164062c0-.730468.589844-1.324218 1.320312-1.320312h22.492188c.734375-.003906 1.324218.589844 1.324218 1.320312v-.164062c0-.734375-.589843-1.324219-1.324218-1.324219zm0 0" fill="#e6e6e6" fill-opacity=".392157"/><path d="m4.628906 28.035156c-.730468 0-1.320312-.589844-1.320312-1.324218v-.164063c0 .730469.589844 1.320313 1.320312 1.320313h22.492188c.734375 0 1.324218-.589844 1.324218-1.320313v.164063c0 .734374-.589843 1.324218-1.324218 1.324218zm0 0" fill-opacity=".196078"/><path d="m74.055428-168.691922h359.840637c11.686384 0 21.185477 9.499093 21.185477 21.185477v359.840637c0 11.686384-9.499093 21.185477-21.185477 21.185477h-359.840637c-11.686384 0-21.122983-9.499093-21.122983-21.185477v-359.840637c0-11.686384 9.436599-21.185477 21.122983-21.185477zm0 0" fill="none" stroke="#212121" stroke-linecap="round" stroke-width="3" transform="matrix(.062506 0 0 .062506 0 13.438783)"/><path d="m6.613281 14.140625c-.363281 0-.660156.296875-.660156.664063v9.921874c0 .367188.296875.660157.660156.660157h1.324219c.367188 0 .664062-.292969.664062-.660157v-3.96875h4.628907v3.96875c0 .367188.296875.660157.660156.660157h1.324219c.367187 0 .660156-.292969.660156-.660157v-9.921874c0-.367188-.292969-.664063-.660156-.664063h-1.324219c-.363281 0-.660156.296875-.660156.664063v3.96875h-4.628907v-3.96875c0-.367188-.296874-.664063-.664062-.664063zm0 0" fill="url(#i)"/><path d="m6.613281 14.140625c-.363281 0-.660156.296875-.660156.664063v.328124c0-.363281.296875-.660156.660156-.660156h1.324219c.367188 0 .664062.296875.664062.660156v-.328124c0-.367188-.296874-.664063-.664062-.664063zm7.277344 0c-.363281 0-.660156.296875-.660156.664063v.328124c0-.363281.296875-.660156.660156-.660156h1.324219c.367187 0 .660156.296875.660156.660156v-.328124c0-.367188-.292969-.664063-.660156-.664063zm-5.289063 4.632813v.328124h4.628907v-.328124zm0 0" fill="#fff"/><path d="m8.601562 20.757812v.660157h4.628907v-.660157zm-2.648437 3.96875v.660157c0 .367187.296875.664062.660156.664062h1.324219c.367188 0 .664062-.296875.664062-.664062v-.660157c0 .367188-.296874.660157-.664062.660157h-1.324219c-.363281 0-.660156-.292969-.660156-.660157zm7.277344 0v.660157c0 .367187.296875.664062.660156.664062h1.324219c.367187 0 .660156-.296875.660156-.664062v-.660157c0 .367188-.292969.660157-.660156.660157h-1.324219c-.363281 0-.660156-.292969-.660156-.660157zm0 0" fill-opacity=".235294"/><path d="m399.883094 855.036503c-21.966407 0-39.91745 17.951043-39.91745 40.153648v599.94274c0 22.202605 17.951043 39.91745 39.91745 39.91745h80.071098c22.202605 0 40.153648-17.714845 40.153648-39.91745v-239.977096h279.894546v239.977096c0 22.202605 17.951042 39.91745 39.91745 39.91745h80.071098c22.202605 0 39.91745-17.714845 39.91745-39.91745v-599.94274c0-22.202605-17.714845-40.153648-39.91745-40.153648h-80.071098c-21.966408 0-39.91745 17.951043-39.91745 40.153648v239.977096h-279.894546v-239.977096c0-22.202605-17.951043-40.153648-40.153648-40.153648zm0 0" fill="none" stroke="#212121" stroke-linecap="round" stroke-linejoin="round" stroke-width="11.338583" transform="scale(.016538)"/><path d="m24.460938 4.792969c-.191407.003906-.378907.082031-.515626.21875l-1.984374 1.984375c-.195313.1875-.269532.46875-.203126.730468.070313.261719.273438.464844.535157.53125.261719.070313.539062-.007812.730469-.199218l.472656-.472656-.351563 3.160156h-1.3125c-.273437-.003906-.523437.136718-.660156.371094-.136719.234374-.136719.523437 0 .757812s.386719.375.660156.371094h3.96875c.410157-.007813.738281-.339844.738281-.75s-.328124-.746094-.738281-.75h-1.148437l.570312-5.121094c.023438-.214844-.046875-.429688-.191406-.589844-.144531-.15625-.351562-.246094-.570312-.242187zm0 0" fill="url(#j)"/><path d="m24.460938 4.792969c-.191407.003906-.378907.082031-.515626.21875l-1.984374 1.984375c-.175782.171875-.257813.421875-.214844.664062.027344-.15625.101562-.300781.214844-.410156l1.984374-1.984375c.136719-.136719.324219-.214844.515626-.21875.375-.007813.695312.261719.753906.628906l.007812-.050781c.023438-.214844-.046875-.429688-.191406-.589844-.144531-.15625-.351562-.246094-.570312-.242187zm-.964844 3.128906-.042969.042969-.308594 2.78125h-1.3125c-.222656-.003906-.4375.09375-.582031.261718-.144531.167969-.207031.394532-.167969.613282.0625-.363282.378907-.625.75-.621094h1.3125l.308594-2.785156.011719-.007813zm1.195312 2.824219-.039062.335937h.027344l.011718-.082031h1.109375c.359375.003906.664063.265625.726563.621094.035156-.214844-.023438-.4375-.164063-.605469s-.34375-.265625-.5625-.269531zm0 0" fill="#fff"/><path d="m25.203125 5.785156-.550781 4.960938h.046875l.523437-4.703125c.007813-.085938.003906-.171875-.019531-.257813zm-1.707031 1.800782-.472656.472656c-.1875.191406-.460938.265625-.71875.203125-.261719-.066407-.464844-.261719-.539063-.519531-.097656.332031.042969.683593.34375.859374.296875.171876.671875.121094.914063-.125l.417968-.421874zm-2.394532 4.117187c-.070312.230469-.023437.476563.121094.664063.144532.191406.371094.300781.609375.296874h3.96875c.234375-.003906.453125-.113281.589844-.304687.140625-.1875.183594-.429687.117187-.652344-.09375.316407-.378906.535157-.707031.539063h-3.96875c-.339843.003906-.636719-.21875-.730469-.542969zm0 0" fill-opacity=".235294"/><path d="m391.337629-138.319823c-3.062207.062494-6.061921 1.312375-8.249212 3.499666l-31.746968 31.746969c-3.124702 2.999713-4.312089 7.499283-3.24969 11.686384 1.124892 4.1871 4.374582 7.436789 8.561682 8.499188 4.1871 1.124892 8.624177-.124988 11.686384-3.187196l7.561778-7.561778-5.624463 50.557672h-20.997994c-4.374583-.062494-8.374201 2.187291-10.561492 5.936933s-2.187291 8.374201 0 12.123843 6.186909 5.999427 10.561492 5.936933h63.493936c6.561874-.124988 11.811372-5.436981 11.811372-11.998854 0-6.561874-5.249498-11.936361-11.811372-11.998855h-18.373245l9.124128-81.929676c.374965-3.437172-.749928-6.874343-3.062207-9.436599-2.312279-2.499761-5.624463-3.937124-9.124129-3.87463zm0 0" fill="none" stroke="#212121" stroke-linecap="round" stroke-linejoin="round" stroke-width="3" transform="matrix(.062506 0 0 .062506 0 13.438783)"/></svg>

<?xml version="1.0" encoding="UTF-8"?>
<svg xmlns="http://www.w3.org/2000/svg" xmlns:xlink="http://www.w3.org/1999/xlink" width="32px" height="32px" viewBox="0 0 32 32" version="1.1">
<defs>
<linearGradient id="linear0" gradientUnits="userSpaceOnUse" x1="254" y1="233.5" x2="254" y2="254.666672" gradientTransform="matrix(0.062506,0,0,0.062506,-0.00000381506,13.438785)">
<stop offset="0" style="stop-color:rgb(0%,0%,0%);stop-opacity:0.27451;"/>
<stop offset="1" style="stop-color:rgb(0%,0%,0%);stop-opacity:0;"/>
</linearGradient>
<radialGradient id="radial0" gradientUnits="userSpaceOnUse" cx="450.908936" cy="189.579361" fx="450.908936" fy="189.579361" r="21.166656" gradientTransform="matrix(0.00000017417,-0.0781325,-0.140638,-0.000000101539,52.130648,63.595333)">
<stop offset="0" style="stop-color:rgb(0%,0%,0%);stop-opacity:0.313726;"/>
<stop offset="0.222222" style="stop-color:rgb(0%,0%,0%);stop-opacity:0.27451;"/>
<stop offset="1" style="stop-color:rgb(0%,0%,0%);stop-opacity:0;"/>
</radialGradient>
<radialGradient id="radial1" gradientUnits="userSpaceOnUse" cx="450.908936" cy="189.579361" fx="450.908936" fy="189.579361" r="21.166656" gradientTransform="matrix(-0.00000017417,0.0781325,0.140638,0.000000101539,-20.377613,-7.527479)">
<stop offset="0" style="stop-color:rgb(0%,0%,0%);stop-opacity:0.313726;"/>
<stop offset="0.222222" style="stop-color:rgb(0%,0%,0%);stop-opacity:0.27451;"/>
<stop offset="1" style="stop-color:rgb(0%,0%,0%);stop-opacity:0;"/>
</radialGradient>
<radialGradient id="radial2" gradientUnits="userSpaceOnUse" cx="450.908936" cy="189.579361" fx="450.908936" fy="189.579361" r="21.166656" gradientTransform="matrix(-0.00000017417,-0.0781325,0.140638,-0.000000101539,-20.377613,63.595333)">
<stop offset="0" style="stop-color:rgb(0%,0%,0%);stop-opacity:0.313726;"/>
<stop offset="0.222222" style="stop-color:rgb(0%,0%,0%);stop-opacity:0.27451;"/>
<stop offset="1" style="stop-color:rgb(0%,0%,0%);stop-opacity:0;"/>
</radialGradient>
<radialGradient id="radial3" gradientUnits="userSpaceOnUse" cx="450.908936" cy="189.579361" fx="450.908936" fy="189.579361" r="21.166656" gradientTransform="matrix(0.00000017417,0.0781325,-0.140638,0.000000101539,52.130646,-7.527479)">
<stop offset="0" style="stop-color:rgb(0%,0%,0%);stop-opacity:0.313726;"/>
<stop offset="0.222222" style="stop-color:rgb(0%,0%,0%);stop-opacity:0.27451;"/>
<stop offset="1" style="stop-color:rgb(0%,0%,0%);stop-opacity:0;"/>
</radialGradient>
<linearGradient id="linear1" gradientUnits="userSpaceOnUse" x1="169.333328" y1="233.5" x2="169.333328" y2="-168.666656" gradientTransform="matrix(0.062506,0,0,0.062506,0,13.438783)">
<stop offset="0" style="stop-color:rgb(25.882354%,64.705884%,96.078432%);stop-opacity:1;"/>
<stop offset="1" style="stop-color:rgb(39.215687%,70.980394%,96.470588%);stop-opacity:1;"/>
</linearGradient>
<linearGradient id="linear2" gradientUnits="userSpaceOnUse" x1="640" y1="1695.118164" x2="640" y2="175.118134" gradientTransform="matrix(0.016538,0,0,0.016538,0,0)">
<stop offset="0" style="stop-color:rgb(74.117649%,74.117649%,74.117649%);stop-opacity:1;"/>
<stop offset="1" style="stop-color:rgb(87.843138%,87.843138%,87.843138%);stop-opacity:1;"/>
</linearGradient>
<linearGradient id="linear3" gradientUnits="userSpaceOnUse" x1="381" y1="-9.916667" x2="381" y2="-147.5" gradientTransform="matrix(0.062506,0,0,0.062506,0,13.438783)">
<stop offset="0" style="stop-color:rgb(74.117649%,74.117649%,74.117649%);stop-opacity:1;"/>
<stop offset="1" style="stop-color:rgb(87.843138%,87.843138%,87.843138%);stop-opacity:1;"/>
</linearGradient>
</defs>
<g id="surface1">
<path style=" stroke:none;fill-rule:nonzero;fill:url(#linear0);" d="M 5.953125 27.9375 L 25.800781 27.9375 L 25.800781 29.40625 L 5.953125 29.40625 Z M 5.953125 27.9375 "/>
<path style=" stroke:none;fill-rule:nonzero;fill:url(#radial0);" d="M 25.800781 28.035156 L 28.445312 28.035156 L 28.445312 26.710938 L 25.800781 26.710938 Z M 25.800781 28.035156 "/>
<path style=" stroke:none;fill-rule:nonzero;fill:url(#radial1);" d="M 5.953125 28.035156 L 3.308594 28.035156 L 3.308594 29.355469 L 5.953125 29.355469 Z M 5.953125 28.035156 "/>
<path style=" stroke:none;fill-rule:nonzero;fill:url(#radial2);" d="M 5.953125 28.035156 L 3.308594 28.035156 L 3.308594 26.710938 L 5.953125 26.710938 Z M 5.953125 28.035156 "/>
<path style=" stroke:none;fill-rule:nonzero;fill:url(#radial3);" d="M 25.800781 28.035156 L 28.445312 28.035156 L 28.445312 29.355469 L 25.800781 29.355469 Z M 25.800781 28.035156 "/>
<path style=" stroke:none;fill-rule:nonzero;fill:url(#linear1);" d="M 4.628906 2.894531 L 27.121094 2.894531 C 27.851562 2.894531 28.445312 3.488281 28.445312 4.21875 L 28.445312 26.710938 C 28.445312 27.441406 27.851562 28.035156 27.121094 28.035156 L 4.628906 28.035156 C 3.898438 28.035156 3.308594 27.441406 3.308594 26.710938 L 3.308594 4.21875 C 3.308594 3.488281 3.898438 2.894531 4.628906 2.894531 Z M 4.628906 2.894531 "/>
<path style=" stroke:none;fill-rule:nonzero;fill:rgb(90.196079%,90.196079%,90.196079%);fill-opacity:0.392157;" d="M 4.628906 2.894531 C 3.898438 2.894531 3.308594 3.484375 3.308594 4.21875 L 3.308594 4.382812 C 3.308594 3.652344 3.898438 3.058594 4.628906 3.0625 L 27.121094 3.0625 C 27.855469 3.058594 28.445312 3.652344 28.445312 4.382812 L 28.445312 4.21875 C 28.445312 3.484375 27.855469 2.894531 27.121094 2.894531 Z M 4.628906 2.894531 "/>
<path style=" stroke:none;fill-rule:nonzero;fill:rgb(0%,0%,0%);fill-opacity:0.196078;" d="M 4.628906 28.035156 C 3.898438 28.035156 3.308594 27.445312 3.308594 26.710938 L 3.308594 26.546875 C 3.308594 27.277344 3.898438 27.867188 4.628906 27.867188 L 27.121094 27.867188 C 27.855469 27.867188 28.445312 27.277344 28.445312 26.546875 L 28.445312 26.710938 C 28.445312 27.445312 27.855469 28.035156 27.121094 28.035156 Z M 4.628906 28.035156 "/>
<path style="fill:none;stroke-width:3;stroke-linecap:round;stroke-linejoin:miter;stroke:rgb(12.941177%,12.941177%,12.941177%);stroke-opacity:1;stroke-miterlimit:4;" d="M 74.055428 -168.691922 L 433.896065 -168.691922 C 445.582449 -168.691922 455.081542 -159.192829 455.081542 -147.506445 L 455.081542 212.334192 C 455.081542 224.020576 445.582449 233.519669 433.896065 233.519669 L 74.055428 233.519669 C 62.369044 233.519669 52.932445 224.020576 52.932445 212.334192 L 52.932445 -147.506445 C 52.932445 -159.192829 62.369044 -168.691922 74.055428 -168.691922 Z M 74.055428 -168.691922 " transform="matrix(0.062506,0,0,0.062506,0,13.438783)"/>
<path style=" stroke:none;fill-rule:nonzero;fill:url(#linear2);" d="M 6.613281 14.140625 C 6.25 14.140625 5.953125 14.4375 5.953125 14.804688 L 5.953125 24.726562 C 5.953125 25.09375 6.25 25.386719 6.613281 25.386719 L 7.9375 25.386719 C 8.304688 25.386719 8.601562 25.09375 8.601562 24.726562 L 8.601562 20.757812 L 13.230469 20.757812 L 13.230469 24.726562 C 13.230469 25.09375 13.527344 25.386719 13.890625 25.386719 L 15.214844 25.386719 C 15.582031 25.386719 15.875 25.09375 15.875 24.726562 L 15.875 14.804688 C 15.875 14.4375 15.582031 14.140625 15.214844 14.140625 L 13.890625 14.140625 C 13.527344 14.140625 13.230469 14.4375 13.230469 14.804688 L 13.230469 18.773438 L 8.601562 18.773438 L 8.601562 14.804688 C 8.601562 14.4375 8.304688 14.140625 7.9375 14.140625 Z M 6.613281 14.140625 "/>
<path style=" stroke:none;fill-rule:nonzero;fill:rgb(100%,100%,100%);fill-opacity:1;" d="M 6.613281 14.140625 C 6.25 14.140625 5.953125 14.4375 5.953125 14.804688 L 5.953125 15.132812 C 5.953125 14.769531 6.25 14.472656 6.613281 14.472656 L 7.9375 14.472656 C 8.304688 14.472656 8.601562 14.769531 8.601562 15.132812 L 8.601562 14.804688 C 8.601562 14.4375 8.304688 14.140625 7.9375 14.140625 Z M 13.890625 14.140625 C 13.527344 14.140625 13.230469 14.4375 13.230469 14.804688 L 13.230469 15.132812 C 13.230469 14.769531 13.527344 14.472656 13.890625 14.472656 L 15.214844 14.472656 C 15.582031 14.472656 15.875 14.769531 15.875 15.132812 L 15.875 14.804688 C 15.875 14.4375 15.582031 14.140625 15.214844 14.140625 Z M 8.601562 18.773438 L 8.601562 19.101562 L 13.230469 19.101562 L 13.230469 18.773438 Z M 8.601562 18.773438 "/>
<path style=" stroke:none;fill-rule:nonzero;fill:rgb(0%,0%,0%);fill-opacity:0.235294;" d="M 8.601562 20.757812 L 8.601562 21.417969 L 13.230469 21.417969 L 13.230469 20.757812 Z M 5.953125 24.726562 L 5.953125 25.386719 C 5.953125 25.753906 6.25 26.050781 6.613281 26.050781 L 7.9375 26.050781 C 8.304688 26.050781 8.601562 25.753906 8.601562 25.386719 L 8.601562 24.726562 C 8.601562 25.09375 8.304688 25.386719 7.9375 25.386719 L 6.613281 25.386719 C 6.25 25.386719 5.953125 25.09375 5.953125 24.726562 Z M 13.230469 24.726562 L 13.230469 25.386719 C 13.230469 25.753906 13.527344 26.050781 13.890625 26.050781 L 15.214844 26.050781 C 15.582031 26.050781 15.875 25.753906 15.875 25.386719 L 15.875 24.726562 C 15.875 25.09375 15.582031 25.386719 15.214844 25.386719 L 13.890625 25.386719 C 13.527344 25.386719 13.230469 25.09375 13.230469 24.726562 Z M 13.230469 24.726562 "/>
<path style="fill:none;stroke-width:11.338583;stroke-linecap:round;stroke-linejoin:round;stroke:rgb(12.941177%,12.941177%,12.941177%);stroke-opacity:1;stroke-miterlimit:4;" d="M 399.883094 855.036503 C 377.916687 855.036503 359.965644 872.987546 359.965644 895.190151 L 359.965644 1495.132891 C 359.965644 1517.335496 377.916687 1535.050341 399.883094 1535.050341 L 479.954192 1535.050341 C 502.156797 1535.050341 520.10784 1517.335496 520.10784 1495.132891 L 520.10784 1255.155795 L 800.002386 1255.155795 L 800.002386 1495.132891 C 800.002386 1517.335496 817.953428 1535.050341 839.919836 1535.050341 L 919.990934 1535.050341 C 942.193539 1535.050341 959.908384 1517.335496 959.908384 1495.132891 L 959.908384 895.190151 C 959.908384 872.987546 942.193539 855.036503 919.990934 855.036503 L 839.919836 855.036503 C 817.953428 855.036503 800.002386 872.987546 800.002386 895.190151 L 800.002386 1135.167247 L 520.10784 1135.167247 L 520.10784 895.190151 C 520.10784 872.987546 502.156797 855.036503 479.954192 855.036503 Z M 399.883094 855.036503 " transform="matrix(0.016538,0,0,0.016538,0,0)"/>
<path style=" stroke:none;fill-rule:nonzero;fill:url(#linear3);" d="M 24.460938 4.792969 C 24.269531 4.796875 24.082031 4.875 23.945312 5.011719 L 21.960938 6.996094 C 21.765625 7.183594 21.691406 7.464844 21.757812 7.726562 C 21.828125 7.988281 22.03125 8.191406 22.292969 8.257812 C 22.554688 8.328125 22.832031 8.25 23.023438 8.058594 L 23.496094 7.585938 L 23.144531 10.746094 L 21.832031 10.746094 C 21.558594 10.742188 21.308594 10.882812 21.171875 11.117188 C 21.035156 11.351562 21.035156 11.640625 21.171875 11.875 C 21.308594 12.109375 21.558594 12.25 21.832031 12.246094 L 25.800781 12.246094 C 26.210938 12.238281 26.539062 11.90625 26.539062 11.496094 C 26.539062 11.085938 26.210938 10.75 25.800781 10.746094 L 24.652344 10.746094 L 25.222656 5.625 C 25.246094 5.410156 25.175781 5.195312 25.03125 5.035156 C 24.886719 4.878906 24.679688 4.789062 24.460938 4.792969 Z M 24.460938 4.792969 "/>
<path style=" stroke:none;fill-rule:nonzero;fill:rgb(100%,100%,100%);fill-opacity:1;" d="M 24.460938 4.792969 C 24.269531 4.796875 24.082031 4.875 23.945312 5.011719 L 21.960938 6.996094 C 21.785156 7.167969 21.703125 7.417969 21.746094 7.660156 C 21.773438 7.503906 21.847656 7.359375 21.960938 7.25 L 23.945312 5.265625 C 24.082031 5.128906 24.269531 5.050781 24.460938 5.046875 C 24.835938 5.039062 25.15625 5.308594 25.214844 5.675781 L 25.222656 5.625 C 25.246094 5.410156 25.175781 5.195312 25.03125 5.035156 C 24.886719 4.878906 24.679688 4.789062 24.460938 4.792969 Z M 23.496094 7.921875 L 23.453125 7.964844 L 23.144531 10.746094 L 21.832031 10.746094 C 21.609375 10.742188 21.394531 10.839844 21.25 11.007812 C 21.105469 11.175781 21.042969 11.402344 21.082031 11.621094 C 21.144531 11.257812 21.460938 10.996094 21.832031 11 L 23.144531 11 L 23.453125 8.214844 L 23.464844 8.207031 Z M 24.691406 10.746094 L 24.652344 11.082031 L 24.679688 11.082031 L 24.691406 11 L 25.800781 11 C 26.160156 11.003906 26.464844 11.265625 26.527344 11.621094 C 26.5625 11.40625 26.503906 11.183594 26.363281 11.015625 C 26.222656 10.847656 26.019531 10.75 25.800781 10.746094 Z M 24.691406 10.746094 "/>
<path style=" stroke:none;fill-rule:nonzero;fill:rgb(0%,0%,0%);fill-opacity:0.235294;" d="M 25.203125 5.785156 L 24.652344 10.746094 L 24.699219 10.746094 L 25.222656 6.042969 C 25.230469 5.957031 25.226562 5.871094 25.203125 5.785156 Z M 23.496094 7.585938 L 23.023438 8.058594 C 22.835938 8.25 22.5625 8.324219 22.304688 8.261719 C 22.042969 8.195312 21.839844 8 21.765625 7.742188 C 21.667969 8.074219 21.808594 8.425781 22.109375 8.601562 C 22.40625 8.773438 22.78125 8.722656 23.023438 8.476562 L 23.441406 8.054688 Z M 21.101562 11.703125 C 21.03125 11.933594 21.078125 12.179688 21.222656 12.367188 C 21.367188 12.558594 21.59375 12.667969 21.832031 12.664062 L 25.800781 12.664062 C 26.035156 12.660156 26.253906 12.550781 26.390625 12.359375 C 26.53125 12.171875 26.574219 11.929688 26.507812 11.707031 C 26.414062 12.023438 26.128906 12.242188 25.800781 12.246094 L 21.832031 12.246094 C 21.492188 12.25 21.195312 12.027344 21.101562 11.703125 Z M 21.101562 11.703125 "/>
<path style="fill:none;stroke-width:3;stroke-linecap:round;stroke-linejoin:round;stroke:rgb(12.941177%,12.941177%,12.941177%);stroke-opacity:1;stroke-miterlimit:4;" d="M 391.337629 -138.319823 C 388.275422 -138.257329 385.275708 -137.007448 383.088417 -134.820157 L 351.341449 -103.073188 C 348.216747 -100.073475 347.02936 -95.573905 348.091759 -91.386804 C 349.216651 -87.199704 352.466341 -83.950015 356.653441 -82.887616 C 360.840541 -81.762724 365.277618 -83.012604 368.339825 -86.074812 L 375.901603 -93.63659 L 370.27714 -43.078918 L 349.279146 -43.078918 C 344.904563 -43.141412 340.904945 -40.891627 338.717654 -37.141985 C 336.530363 -33.392343 336.530363 -28.767784 338.717654 -25.018142 C 340.904945 -21.2685 344.904563 -19.018715 349.279146 -19.081209 L 412.773082 -19.081209 C 419.334956 -19.206197 424.584454 -24.51819 424.584454 -31.080063 C 424.584454 -37.641937 419.334956 -43.016424 412.773082 -43.078918 L 394.399837 -43.078918 L 403.523965 -125.008594 C 403.89893 -128.445766 402.774037 -131.882937 400.461758 -134.445193 C 398.149479 -136.944954 394.837295 -138.382317 391.337629 -138.319823 Z M 391.337629 -138.319823 " transform="matrix(0.062506,0,0,0.062506,0,13.438783)"/>
</g>
</svg>
